flaticon/emoticons/confused-2.svg

<svg xmlns="http://www.w3.org/2000/svg" width="32" height="32" viewBox="0 0 24 24">
    <path d="M 11.328125 13.832031 C 11.328125 12.261719 10.046875 10.984375 8.480469 10.984375 C 6.910156 10.984375 5.632812 12.261719 5.632812 13.832031 C 5.632812 15.402344 6.910156 16.679688 8.480469 16.679688 C 10.046875 16.679688 11.328125 15.402344 11.328125 13.832031 Z M 8.480469 15.863281 C 7.359375 15.863281 6.445312 14.953125 6.445312 13.832031 C 6.445312 12.710938 7.359375 11.796875 8.480469 11.796875 C 9.601562 11.796875 10.511719 12.710938 10.511719 13.832031 C 10.511719 14.953125 9.601562 15.863281 8.480469 15.863281 Z M 8.480469 15.863281"/>
    <path d="M8.480469 13.015625C8.480469 13.464844 8.113281 13.832031 7.664062 13.832031 7.214844 13.832031 6.851562 13.464844 6.851562 13.015625 6.851562 12.566406 7.214844 12.203125 7.664062 12.203125 8.113281 12.203125 8.480469 12.566406 8.480469 13.015625zM15.800781 10.984375C14.230469 10.984375 12.953125 12.261719 12.953125 13.832031 12.953125 15.402344 14.230469 16.679688 15.800781 16.679688 17.371094 16.679688 18.648438 15.402344 18.648438 13.832031 18.648438 12.261719 17.371094 10.984375 15.800781 10.984375zM15.800781 15.863281C14.679688 15.863281 13.765625 14.953125 13.765625 13.832031 13.765625 12.710938 14.679688 11.796875 15.800781 11.796875 16.921875 11.796875 17.835938 12.710938 17.835938 13.832031 17.835938 14.953125 16.921875 15.863281 15.800781 15.863281zM15.800781 15.863281"/>
    <path d="M15.800781 13.015625C15.800781 13.464844 15.4375 13.832031 14.988281 13.832031 14.539062 13.832031 14.171875 13.464844 14.171875 13.015625 14.171875 12.566406 14.539062 12.203125 14.988281 12.203125 15.4375 12.203125 15.800781 12.566406 15.800781 13.015625zM12.460938 17.9375C10.605469 18.214844 9.414062 19.917969 9.363281 19.988281 9.238281 20.171875 9.285156 20.425781 9.46875 20.554688 9.539062 20.601562 9.621094 20.625 9.699219 20.625 9.828125 20.625 9.957031 20.566406 10.035156 20.449219 10.042969 20.433594 11.070312 18.96875 12.582031 18.742188 13.382812 18.617188 14.195312 18.878906 14.992188 19.507812 15.171875 19.648438 15.425781 19.617188 15.566406 19.441406 15.703125 19.265625 15.675781 19.007812 15.5 18.871094 14.515625 18.09375 13.492188 17.78125 12.460938 17.9375zM12.460938 17.9375"/>
    <path d="M 23.753906 17.757812 C 22.902344 15.84375 22.632812 12.222656 22.546875 10.230469 C 22.46875 8.351562 21.910156 6.585938 20.929688 5.125 C 19.175781 2.515625 17.230469 1.449219 15.921875 0.875 C 13.25 -0.292969 10.191406 -0.292969 7.523438 0.875 C 5.980469 1.550781 4.21875 2.53125 2.828125 4.707031 C 1.894531 6.164062 1.382812 7.921875 1.34375 9.785156 C 1.300781 11.929688 1.101562 15.824219 0.234375 17.828125 C -0.0390625 18.46875 0.25 19.214844 0.882812 19.496094 C 1.246094 19.65625 1.945312 19.753906 2.816406 19.859375 C 2.875 19.867188 2.925781 19.875 2.976562 19.882812 L 2.976562 20.339844 C 2.976562 21.421875 3.929688 22.371094 5.019531 22.371094 L 6.039062 22.371094 L 6.039062 23.0625 C 6.039062 23.578125 6.460938 24 6.976562 24 L 16.492188 24 C 17.007812 24 17.429688 23.578125 17.429688 23.0625 L 17.429688 22.371094 L 18.769531 22.371094 C 19.871094 22.371094 20.875 21.402344 20.875 20.339844 L 20.875 19.867188 C 21.097656 19.832031 21.324219 19.796875 21.550781 19.765625 C 22.140625 19.683594 22.695312 19.605469 23.058594 19.464844 C 23.386719 19.335938 23.636719 19.089844 23.769531 18.765625 C 23.90625 18.441406 23.898438 18.082031 23.753906 17.757812 Z M 16.613281 23.0625 C 16.613281 23.128906 16.558594 23.1875 16.488281 23.1875 L 6.976562 23.1875 C 6.90625 23.1875 6.851562 23.128906 6.851562 23.0625 L 6.851562 22.371094 L 16.613281 22.371094 Z M 20.0625 20.339844 C 20.0625 20.953125 19.421875 21.558594 18.765625 21.558594 L 5.019531 21.558594 C 4.386719 21.558594 3.792969 20.964844 3.792969 20.339844 L 3.792969 11.367188 C 5.433594 11.253906 11.675781 10.632812 14.292969 7.671875 C 14.886719 8.769531 16.308594 11.054688 18.183594 11.644531 C 18.820312 11.84375 19.449219 11.835938 20.0625 11.621094 Z M 23.019531 18.457031 C 22.972656 18.570312 22.878906 18.660156 22.761719 18.707031 C 22.492188 18.8125 21.953125 18.886719 21.4375 18.960938 C 21.25 18.984375 21.0625 19.011719 20.875 19.042969 L 20.875 10.984375 C 20.875 10.835938 20.796875 10.703125 20.671875 10.628906 C 20.542969 10.558594 20.386719 10.558594 20.261719 10.632812 C 19.65625 10.992188 19.058594 11.066406 18.429688 10.871094 C 16.335938 10.210938 14.753906 6.78125 14.738281 6.746094 C 14.675781 6.613281 14.546875 6.523438 14.402344 6.511719 C 14.253906 6.5 14.113281 6.566406 14.03125 6.6875 C 11.675781 10.191406 3.449219 10.574219 3.367188 10.578125 C 3.148438 10.585938 2.976562 10.765625 2.976562 10.984375 L 2.976562 19.0625 C 2.957031 19.058594 2.9375 19.058594 2.917969 19.054688 C 2.351562 18.984375 1.496094 18.878906 1.214844 18.753906 C 0.984375 18.652344 0.882812 18.386719 0.984375 18.152344 C 1.90625 16.019531 2.113281 12.003906 2.160156 9.800781 C 2.191406 8.085938 2.660156 6.476562 3.511719 5.144531 C 4.785156 3.15625 6.417969 2.246094 7.847656 1.621094 C 10.308594 0.542969 13.132812 0.542969 15.59375 1.621094 C 16.8125 2.152344 18.617188 3.144531 20.253906 5.578125 C 21.148438 6.917969 21.664062 8.535156 21.734375 10.265625 C 21.839844 12.765625 22.148438 16.152344 23.011719 18.089844 C 23.0625 18.207031 23.066406 18.339844 23.019531 18.457031 Z M 23.019531 18.457031"/>
</svg>

<svg xmlns="http://www.w3.org/2000/svg" width="32" height="32" viewBox="0 0 24 24">
    <path d="M11.328 13.832a2.853 2.853 0 0 0-2.848-2.848 2.85 2.85 0 0 0-2.847 2.848A2.85 2.85 0 0 0 8.48 16.68a2.853 2.853 0 0 0 2.848-2.848zM8.48 15.863a2.036 2.036 0 0 1-2.035-2.031c0-1.121.914-2.035 2.035-2.035a2.032 2.032 0 1 1 0 4.066zm0 0"/>
    <path d="M8.48 13.016c0 .449-.367.816-.816.816a.815.815 0 1 1 .816-.816zm0 0M15.8 10.984a2.85 2.85 0 0 0-2.847 2.848 2.85 2.85 0 0 0 2.848 2.848 2.85 2.85 0 0 0 2.847-2.848 2.85 2.85 0 0 0-2.847-2.848zm0 4.88a2.036 2.036 0 0 1-2.034-2.032c0-1.121.914-2.035 2.035-2.035 1.12 0 2.035.914 2.035 2.035a2.036 2.036 0 0 1-2.035 2.031zm0 0"/>
    <path d="M15.8 13.016a.815.815 0 1 1-1.63.002.815.815 0 0 1 1.63-.002zm0 0M12.46 17.938c-1.855.277-3.046 1.98-3.097 2.05a.412.412 0 0 0 .106.567.42.42 0 0 0 .23.07.4.4 0 0 0 .336-.176c.008-.015 1.035-1.48 2.547-1.707.8-.125 1.613.137 2.41.766a.408.408 0 0 0 .508-.637c-.984-.777-2.008-1.09-3.04-.933zm0 0"/>
    <path d="M23.754 17.758c-.852-1.914-1.121-5.535-1.207-7.528-.078-1.878-.637-3.644-1.617-5.105-1.754-2.61-3.7-3.676-5.008-4.25a10.503 10.503 0 0 0-8.399 0C5.98 1.551 4.22 2.531 2.828 4.707c-.933 1.457-1.445 3.215-1.484 5.078-.043 2.145-.242 6.04-1.11 8.043-.273.64.016 1.387.649 1.668.363.16 1.062.258 1.933.363l.16.024v.457c0 1.082.954 2.031 2.044 2.031h1.02v.692a.94.94 0 0 0 .937.937h9.515a.94.94 0 0 0 .938-.938v-.69h1.34c1.101 0 2.105-.97 2.105-2.032v-.473c.223-.035.45-.07.676-.101.59-.082 1.144-.16 1.508-.301.328-.13.578-.375.71-.7a1.257 1.257 0 0 0-.015-1.007zm-7.14 5.305a.126.126 0 0 1-.126.125H6.977a.126.126 0 0 1-.125-.125v-.692h9.761zm3.448-2.723c0 .613-.64 1.219-1.296 1.219H5.02c-.633 0-1.227-.594-1.227-1.22v-8.972c1.64-.113 7.883-.734 10.5-3.695.594 1.098 2.016 3.383 3.89 3.973.637.199 1.266.19 1.88-.024zm2.958-1.883a.463.463 0 0 1-.258.25c-.27.105-.809.18-1.325.254-.187.023-.375.05-.562.082v-8.059a.412.412 0 0 0-.203-.355.415.415 0 0 0-.41.004c-.606.36-1.203.433-1.832.238-2.094-.66-3.676-4.09-3.692-4.125a.41.41 0 0 0-.707-.059c-2.355 3.504-10.582 3.887-10.664 3.891a.405.405 0 0 0-.39.406v8.079c-.02-.004-.04-.004-.059-.008-.566-.07-1.422-.176-1.703-.301a.454.454 0 0 1-.23-.602c.921-2.132 1.128-6.148 1.175-8.351.031-1.715.5-3.324 1.352-4.656C4.785 3.156 6.418 2.246 7.848 1.62a9.68 9.68 0 0 1 7.746 0c1.219.531 3.023 1.524 4.66 3.957.894 1.34 1.41 2.957 1.48 4.688.106 2.5.414 5.886 1.278 7.824.05.117.054.25.008.367zm0 0"/>
</svg>
